icons/nuclide.svg

<?xml version="1.0" encoding="UTF-8" standalone="no"?>
<svg width="256px" height="308px" viewBox="0 0 256 308" version="1.1" xmlns="http://www.w3.org/2000/svg" xmlns:xlink="http://www.w3.org/1999/xlink" preserveAspectRatio="xMidYMid">
	<g>
		<path d="M235.733836,269.65287 C221.82974,283.557966 187.688503,273.657897 148.672233,247.413716 L213.661683,182.843268 C239.774864,221.750538 249.606932,255.779773 235.733836,269.65287 L235.733836,269.65287 L235.733836,269.65287 Z M34.9234439,128.986894 C14.9293053,95.4576617 8.47326049,67.0994651 20.8263461,54.7463795 C33.2354322,42.3372935 61.77163,48.8963389 95.4978638,69.1034791 L34.9234439,128.986894 L34.9234439,128.986894 Z M224.80276,171.774191 L243.56489,153.133062 L243.56489,0 L152.197257,90.7526291 C150.350244,89.1926183 148.501231,87.6656077 146.652218,86.1635974 L165.414349,67.6714692 L165.398348,0 L106.591941,58.135403 C64.66365,33.5222324 27.2243905,26.7301853 9.76126942,44.1933064 C-7.6238511,61.5774268 -0.992805129,98.7306844 23.3493636,140.428974 L9.71226912,153.911067 L9.71226912,307.053128 L81.4547664,235.872635 L81.3577657,150.517044 L135.208139,97.4426755 C137.059152,98.966686 138.912165,100.521697 140.766177,102.106708 L88.6118161,153.911067 L88.605816,307.091128 L136.997152,259.012795 C183.829476,289.798009 227.073776,299.850079 246.245909,280.677946 C265.370042,261.553813 255.406972,218.472515 224.80276,171.774191 L224.80276,171.774191 L224.80276,171.774191 Z" fill="#7D4F8F"></path>
		<path d="M9.6703191,154.304416 L9.6703191,307.837861 L81.596168,236.475452 L81.4989194,150.901719 L165.770325,67.8444165 L165.754284,0 L9.6703191,154.304416" fill="#3F2A70"></path>
		<path d="M88.2563424,307.885667 L88.262358,154.309282 L243.616343,0 L243.616343,153.529264 L88.2563424,307.885667" fill="#5A2A79"></path>
		<path d="M136.995104,258.883822 C183.828071,289.6688 227.07204,299.720793 246.244026,280.548807 C273.265007,253.527826 242.231029,178.68488 176.928075,113.381926 C111.625122,48.0789724 36.7821755,17.0449945 9.76119479,44.0659753 C-7.62379281,61.4499628 -0.992797539,98.6029363 23.3491851,140.300907 L34.9241769,128.858915 C14.9291912,95.3299386 8.47319571,66.9719588 20.8261869,54.6189677 C41.3751722,34.0699823 106.142126,65.51996 165.486084,124.864918 C224.831041,184.208876 256.281019,248.974829 235.732034,269.523815 C221.828044,283.428805 187.687068,273.528812 148.671096,247.284831 L136.995104,258.883822" fill="#7D4F8F"></path>
	</g>
</svg>

<svg xmlns="http://www.w3.org/2000/svg" viewBox="0 0 256 307.886">
  <path fill="#7d4f8f" d="M235.734 269.653c-13.904 13.905-48.046 4.005-87.062-22.24l64.99-64.57c26.113 38.908 35.945 72.937 22.072 86.81zM34.924 128.987c-19.995-33.53-26.45-61.888-14.098-74.24 12.41-12.41 40.946-5.85 74.672 14.356zm189.879 42.787 18.762-18.64V0l-91.368 90.753a375.81 375.81 0 0 0-5.545-4.59l18.762-18.492L165.398 0l-58.806 58.135C64.664 33.522 27.224 26.73 9.762 44.193-7.625 61.577-.994 98.731 23.348 140.43L9.712 153.911v153.142l71.743-71.18-.097-85.356 53.85-53.074a391.77 391.77 0 0 1 5.558 4.664L88.612 153.91l-.006 153.18 48.391-48.078c46.832 30.785 90.077 40.837 109.249 21.665 19.124-19.124 9.161-62.205-21.443-108.904z"/>
  <path fill="#3f2a70" d="M9.67 154.304v153.534l71.926-71.363-.097-85.573 84.271-83.058L165.754 0 9.67 154.304"/>
  <path fill="#5a2a79" d="m88.256 307.886.006-153.577L243.616 0v153.53L88.256 307.885"/>
  <path fill="#7d4f8f" d="M136.995 258.884c46.833 30.785 90.077 40.837 109.249 21.665 27.021-27.021-4.013-101.864-69.316-167.167S36.782 17.045 9.761 44.066C-7.624 61.45-.993 98.603 23.35 140.301l11.575-11.442c-19.995-33.53-26.45-61.887-14.098-74.24 20.55-20.549 85.316 10.901 144.66 70.246 59.345 59.344 90.795 124.11 70.246 144.659-13.904 13.905-48.045 4.005-87.06-22.24l-11.677 11.6"/>
</svg>
